!!!!SEGMENT:Sabishikituioku.krn
!!!OTL: 寂しき追憶
!!!OPR:Eiga Banso Kyokusyu,jidai-geki,kouhen
!!!YOY:1928
!!!ONB:Higeki
**kern	**dynam
*clefG2	*
*k[]	*
*a:	*
*M3/4	*
=1	=1
16ee'LL 16eee	f
16ee' 16eee	>
16ee' 16eee	.
16ee'JJ 16eee	.
16ee'LL 16eee	.
16ee' 16eee	.
16ee' 16eee	.
16ee'JJ 16eee	.
16ee'LL 16eee	.
16ee' 16eee	.
16ee' 16eee	.
16ee'JJ 16eee	.
=2	=2
16ee'LL 16eee	.
16ee' 16eee	.
16ee' 16eee	.
16ee'JJ 16eee	.
16ee'LL 16eee	.
16ee' 16eee	.
16ee' 16eee	.
16ee'JJ 16eee	.
16ee'LL 16eee	.
16ee' 16eee	.
16ee' 16eee	.
16ee'JJ 16eee	]
=3!|:	=3!|:
*^	*
!LO:TX:a:t=8va	!	!
16eeLL	8rc	.
16ee	.	.
16ee	8e	.
16eeJJ	.	.
16eeLL	(4e	.
16ee	.	.
16ee	.	.
16eeJJ	.	.
16eeLL	8AL	.
16ee	.	.
16ee	8BJ)	.
16eeJJ	.	.
=4	=4	=4
16eeLL	(8cL	.
16ee	.	.
16ee	8BJ)	.
16eeJJ	.	.
16eeLL	[2A	.
16ee	.	.
16ee	.	.
16eeJJ	.	.
16eeLL	.	.
16ee	.	.
16ee	.	.
16eeJJ	.	.
=5	=5	=5
16eeLL	8AL]	.
16ee	.	.
16ee	8e'~J	.
16eeJJ	.	.
16eeLL	8A'~L	.
16ee	.	.
16ee	8B'~J	.
16eeJJ	.	.
16eeLL	8c'~L	.
16ee	.	.
16ee	8d'~J	.
16eeJJ	.	.
=6	=6	=6
16eeLL	(8.eL	.
16ee	.	.
16ee	.	.
.	(8qg\	.
16eeJJ	16fJk)	.
16eeLL	2e)	.
16ee	.	.
16ee	.	.
16eeJJ	.	.
16eeLL	.	.
16ee	.	.
16ee	.	.
16eeJJ	.	.
=7	=7	=7
16aaLL	(4.e	.
16aa	.	.
16aa	.	.
16aaJJ	.	.
16aaLL	.	.
16aa	.	.
16aa	8d	.
16aaJJ	.	.
16aaLL	8cL	.
16aa	.	.
16aa	8dJ)	.
16aaJJ	.	.
=8	=8	=8
16ggLL	2.e	.
16gg	.	>
16gg	.	.
16ggJJ	.	.
16ggLL	.	.
16gg	.	.
16gg	.	.
16ggJJ	.	.
16ggLL	.	.
16gg	.	.
16gg	.	.
16ggJJ	.	]
=9	=9	=9
16ffLL	(4.e	.
16ff	.	.
16ff	.	.
16ffJJ	.	.
16ffLL	.	.
16ff	.	.
16ff	8d	.
16ffJJ	.	.
16ffLL	8cL	.
16ff	.	.
16ff	8AJ)	.
16ffJJ	.	.
=10	=10	=10
.	(8qG#X\	.
16eeLL	2.B)	.
16ee	.	.
16ee	.	.
16eeJJ	.	.
16eeLL	.	.
16ee	.	.
16ee	.	.
16eeJJ	.	.
16eeLL	.	.
16ee	.	.
16ee	.	.
16eeJJ	.	.
=11	=11	=11
16eeLL	8rc	.
16ee	.	.
16ee	8e	pp
16eeJJ	.	.
16eeLL	(4e	.
16ee	.	.
16ee	.	.
16eeJJ	.	.
16eeLL	8AL	.
16ee	.	.
16ee	8BJ)	.
16eeJJ	.	.
=12	=12	=12
16eeLL	8cL	.
16ee	.	.
16ee	8BJ	.
16eeJJ	.	.
16eeLL	[2A	.
16ee	.	.
16ee	.	.
16eeJJ	.	.
16eeLL	.	.
16ee	.	.
16ee	.	.
16eeJJ	.	.
=13	=13	=13
16eeLL	8AL]	.
16ee	.	.
16ee	8e'~J	.
16eeJJ	.	.
16eeLL	8A'~L	.
16ee	.	.
16ee	8B'~J	.
16eeJJ	.	.
16eeLL	8c'~L	.
16ee	.	.
16ee	8d'~J	.
16eeJJ	.	.
=14	=14	=14
16eeLL	(8.eL	.
16ee	.	.
16ee	.	.
.	(8qg\	.
16eeJJ	16fJk)	.
16eeLL	2e)	.
16ee	.	.
16ee	.	.
16eeJJ	.	.
16eeLL	.	.
16ee	.	.
16ee	.	.
16eeJJ	.	.
=15	=15	=15
16aaLL	(4.e	.
16aa	.	.
16aa	.	.
16aaJJ	.	.
16aaLL	.	.
16aa	.	.
16aa	8d	.
16aaJJ	.	.
16aaLL	8cL	.
16aa	.	.
16aa	8dJ)	.
16aaJJ	.	.
=16	=16	=16
16ggLL	2.e	.
16gg	.	.
16gg	.	.
16ggJJ	.	.
16ggLL	.	.
16gg	.	.
16gg	.	.
16ggJJ	.	.
16ggLL	.	.
16gg	.	.
16gg	.	.
16ggJJ	.	.
=17	=17	=17
16ffLL	(4.e	.
16ff	.	.
16ff	.	.
16ffJJ	.	.
16ffLL	.	.
16ff	.	.
16ff	8d	.
16ffJJ	.	.
16ffLL	8cL	.
16ff	.	.
16ff	8dJ)	.
16ffJJ	.	.
=18	=18	=18
16eeLL	[2.e	.
16ee	.	.
16ee	.	.
16eeJJ	.	.
16eeLL	.	.
16ee	.	.
16ee	.	.
16eeJJ	.	.
16eeLL	.	.
16ee	.	.
16ee	.	.
16eeJJ	.	.
=19	=19	=19
16eeLL	8e]	.
16ee	.	.
16ee	8rc	.
16eeJJ	.	.
16eeLL	4rc	.
16ee	.	.
16ee	.	.
16eeJJ	.	.
16eeLL	4rc	.
16ee	.	.
16ee	.	.
16eeJJ	.	.
*v	*v	*
=20	=20
2.e; 2.ee	.
==	==
*-	*-
!!!ENC: Yukiko Yoden
!!!END: 2023/06/11
